X:1
T:Title
%%score { ( 1 3 ) | ( 2 4 ) }
L:1/8
M:4/4
K:Eb
V:1 treble nm="Grand Piano"
V:3 treble 
V:2 bass 
V:4 bass 
V:1
 z4 z2[Q:1/4=100] E2 | G3 F EGcB | A6 G2 | [DF]3 [DF] [A,DF][A,DF][G,E][B,DF] |[M:3/4] [B,EG]6 | %5
[M:1/4] G2 |[M:4/4] [Ge]3 [Gd] [CGc][CG] [CGc]>[CGB] | [CFA]6 [CF=A]2 | [B,FB]3 [Fd] dcG=A | %9
[M:3/4] B2- [FB-][EB-] [DB]2 |[M:1/4] B2 |[M:4/4] [Ec]2 [Ec]2 cedc | B6 .[FA]2 | %13
 [B,DF]3 [B,DF] [A,DF]>[A,DF] [G,E][B,DF] | [EG]6 z2 | e->[Ge-] [Ge][Ge] [Ae][Ae][Ad][Ac] | %16
 G2 E4 z2 | [EG]3 [EG] [B,DG][CDA] [B,DG]>[A,DF] |[M:3/4] [G,E]6 |] %19
V:2
 z4 z2 [E,G,]2 | [E,B,E]3 [E,A,D] [E,G,][E,B,E][A,E][G,B,E] | [F,B,D]6 [E,B,E]2 | %3
 [B,,B,]3 [B,,B,] B,,B,,B,,B,, |[M:3/4] E,6 |[M:1/4] G,2 |[M:4/4] [C,C]3 [D,=B,] E,E, =E,>E, | %7
 F,6 E,2 | D,3 [B,,B,] [F,=A,E][F,A,E][F,B,E][F,CE] |[M:3/4] z2 A,G, F,2 |[M:1/4] [E,G,E]2 | %11
[M:4/4] z4 .A,2 z2 | .G,2 z2 z4 | B,,3 B,, B,,>B,, B,,B,, | E,>E, E,E, E,2 E,2 | B,2 z2 z4 | %16
 [E,E]2 [G,D]2 z[K:treble] A z F | B,3 B,[K:bass] B,,B,, B,,>B,, |[M:3/4] E,6 |] %19
V:3
 x8 | x8 | x8 | x8 |[M:3/4] x6 |[M:1/4] x2 |[M:4/4] x8 | x8 | x8 |[M:3/4] [B,D]2 z2 z2 | %10
[M:1/4] x2 |[M:4/4] x8 | z EFA G2 B,-[B,EG] | x8 | B,>B, B,B, B,2 [B,GB]2 | G2 z2 z4 | %16
 B4- [CB]2 [=B,E]2 | x8 |[M:3/4] x6 |] %19
V:4
 x8 | x8 | x8 | x8 |[M:3/4] x6 |[M:1/4] x2 |[M:4/4] x8 | x8 | x8 |[M:3/4] B,,6 |[M:1/4] x2 | %11
[M:4/4] [A,,A,]2 [A,,A,]2 E-[A,CE-][A,B,E-][A,E-] | [E,-E][E,-G,][E,-A,][E,-C] [E,B,]2 D,E, | x8 | %14
 x8 | E,->[E,-B,] [E,B,][E,=B,] [E,C][E,C][E,D][E,E] | z4 A,2[K:treble] A,2 | x4[K:bass] x4 | %18
[M:3/4] x6 |] %19

